iconos/relacionar.svg

<?xml version="1.0" encoding="UTF-8" standalone="no"?>
<svg
   version="1.1"
   width="28"
   height="28"
   color-interpolation="linearRGB"
   id="svg70"
   sodipodi:docname="relacionar.svg"
   inkscape:version="1.2.2 (b0a8486541, 2022-12-01)"
   xmlns:inkscape="http://www.inkscape.org/namespaces/inkscape"
   xmlns:sodipodi="http://sodipodi.sourceforge.net/DTD/sodipodi-0.dtd"
   xmlns="http://www.w3.org/2000/svg"
   xmlns:svg="http://www.w3.org/2000/svg">
  <defs
     id="defs74" />
  <sodipodi:namedview
     id="namedview72"
     pagecolor="#ffffff"
     bordercolor="#000000"
     borderopacity="0.25"
     inkscape:showpageshadow="2"
     inkscape:pageopacity="0.0"
     inkscape:pagecheckerboard="0"
     inkscape:deskcolor="#d1d1d1"
     showgrid="false"
     inkscape:zoom="13.5625"
     inkscape:cx="26.986175"
     inkscape:cy="8.40553"
     inkscape:window-width="1920"
     inkscape:window-height="1052"
     inkscape:window-x="0"
     inkscape:window-y="0"
     inkscape:window-maximized="1"
     inkscape:current-layer="svg70" />
  <g
     id="g68"
     transform="matrix(0.35672387,0,0,0.35672387,2.7504614,5.5168122)">
    <path
       style="fill:#010101;fill-opacity:0.396"
       d="m 42,61 h 6 l 4,-4 h 4 l 6,-6 -14,-4 z"
       transform="matrix(0.7582,0,0,0.7582,-0.4984,15.3441)"
       id="path2" />
    <path
       style="fill:none;stroke:#000000;stroke-width:4"
       d="M 3,15 13,41 42,59 60,12 48,10 44,12 26,8 l -2,5 -8,-2 -0.09,8.2 z"
       transform="matrix(0.7582,0,0,0.7582,-0.4984,15.3441)"
       id="path4" />
    <linearGradient
       id="gradient0"
       gradientUnits="userSpaceOnUse"
       x1="102.6"
       y1="8.5"
       x2="102.74"
       y2="47.07">
      <stop
         offset="0"
         stop-color="#face79"
         id="stop6" />
      <stop
         offset="1"
         stop-color="#bc4105"
         id="stop8" />
    </linearGradient>
    <path
       style="fill:url(#gradient0)"
       d="M 26,8 14,41 42,58 60,12 48,10 44,12 Z"
       transform="matrix(0.7582,0,0,0.7582,-0.4984,15.3441)"
       id="path11" />
    <linearGradient
       id="gradient1"
       gradientUnits="userSpaceOnUse"
       x1="103.24"
       y1="12.68"
       x2="103.39"
       y2="55.34">
      <stop
         offset="0"
         stop-color="#ffffff"
         id="stop13" />
      <stop
         offset="1"
         stop-color="#8e8e8e"
         id="stop15" />
    </linearGradient>
    <path
       style="fill:url(#gradient1)"
       d="M 16,11 V 41 L 42,57 49,22 Z"
       transform="matrix(0.7582,0,0,0.7582,-0.4984,15.3441)"
       id="path18" />
    <linearGradient
       id="gradient2"
       gradientUnits="userSpaceOnUse"
       x1="78.339996"
       y1="-26.66"
       x2="101.46"
       y2="12.94">
      <stop
         offset="0"
         stop-color="#9a9a9a"
         id="stop20" />
      <stop
         offset="1"
         stop-color="#505050"
         id="stop22" />
    </linearGradient>
    <path
       style="fill:url(#gradient2)"
       d="M 16,11 49,22 42,57 52,20.37 Z"
       transform="matrix(0.7582,0,0,0.7582,-0.4984,15.3441)"
       id="path25" />
    <linearGradient
       id="gradient3"
       gradientUnits="userSpaceOnUse"
       x1="88.519997"
       y1="9.5900002"
       x2="97.540001"
       y2="51.290001">
      <stop
         offset="0"
         stop-color="#ffe2ac"
         id="stop27" />
      <stop
         offset="1"
         stop-color="#f49806"
         id="stop29" />
    </linearGradient>
    <path
       style="fill:url(#gradient3)"
       d="M 3,15 13,41 42,59 38,30 Z"
       transform="matrix(0.7582,0,0,0.7582,-0.4984,15.3441)"
       id="path32" />
    <path
       style="fill:#a03d03"
       d="M 3,15 38,30 42,59 40.5,28 Z"
       transform="matrix(0.7582,0,0,0.7582,-0.4984,15.3441)"
       id="path34" />
    <path
       style="fill:#010101;fill-opacity:0.549"
       d="m 30,62 c 0,0 8,-3 9,-4 1,-1 1,-2 0,-3 -1,-1 -9,-3 -9,-3 z"
       transform="matrix(0.9204,-0.1473,0.1473,0.9204,9.0951,-14.4603)"
       id="path36" />
    <radialGradient
       id="gradient4"
       gradientUnits="userSpaceOnUse"
       cx="0"
       cy="0"
       r="64"
       gradientTransform="matrix(0.5551,0.0905,-0.0804,0.4934,4.8105,28.3109)">
      <stop
         offset="0"
         stop-color="#fbf5aa"
         id="stop38" />
      <stop
         offset="1"
         stop-color="#ffc000"
         id="stop40" />
    </radialGradient>
    <path
       style="fill:url(#gradient4)"
       d="M 1,21 V 47 L 29,61 V 35 Z"
       transform="matrix(0.9204,-0.1473,0.1473,0.9204,10.0155,-14.6077)"
       id="path43" />
    <path
       style="fill:none;stroke:#000000;stroke-width:2;stroke-linecap:round;stroke-linejoin:round"
       d="M 1,21 V 47 L 29,61 V 35 Z"
       transform="matrix(0.9204,-0.1473,0.1473,0.9204,10.0155,-14.6077)"
       id="path45" />
    <linearGradient
       id="gradient5"
       gradientUnits="userSpaceOnUse"
       x1="94.519997"
       y1="49.68"
       x2="52.09"
       y2="84.269997">
      <stop
         offset="0.2091"
         stop-color="#010101"
         id="stop47" />
      <stop
         offset="1"
         stop-color="#010101"
         stop-opacity="0.1843"
         id="stop49" />
    </linearGradient>
    <path
       style="fill:url(#gradient5)"
       d="M 31,33 50,17 51,19 32,35 Z"
       transform="matrix(1.1003,-0.2298,0.2505,0.899,3.0455,12.6054)"
       id="path52" />
    <linearGradient
       id="gradient6"
       gradientUnits="userSpaceOnUse"
       x1="94.519997"
       y1="49.68"
       x2="52.09"
       y2="84.269997">
      <stop
         offset="0.2091"
         stop-color="#010101"
         id="stop54" />
      <stop
         offset="1"
         stop-color="#010101"
         stop-opacity="0.1843"
         id="stop56" />
    </linearGradient>
    <path
       style="fill:url(#gradient6)"
       d="M 31,33 50,17 51,19 32,35 Z"
       transform="matrix(1.0331,-0.1654,0.1654,1.0331,-22.9872,-24.5277)"
       id="path59" />
    <linearGradient
       id="gradient7"
       gradientUnits="userSpaceOnUse"
       x1="94.519997"
       y1="49.68"
       x2="52.09"
       y2="84.269997">
      <stop
         offset="0.2091"
         stop-color="#010101"
         id="stop61" />
      <stop
         offset="1"
         stop-color="#010101"
         stop-opacity="0.1843"
         id="stop63" />
    </linearGradient>
    <path
       style="fill:url(#gradient7)"
       d="M 31,33 50,17 51,19 32,35 Z"
       transform="matrix(1.0331,-0.1627,0.1654,1.0162,3.9291,-15.4691)"
       id="path66" />
  </g>
</svg>

<?xml version="1.0" encoding="UTF-8" standalone="yes"?>
<svg version="1.1" width="64" height="64" color-interpolation="linearRGB"
     xmlns:svg="http://www.w3.org/2000/svg" xmlns="http://www.w3.org/2000/svg">
 <g>
  <path style="fill:#010101; fill-opacity:0.396"
        d="M42 61H48L52 57H56L62 51L48 47L42 61z"
        transform="matrix(0.7582,0,0,0.7582,-0.4984,15.3441)"
  />
  <path style="fill:none; stroke:#000000; stroke-width:4"
        d="M3 15L13 41L42 59L60 12L48 10L44 12L26 8L24 13L16 11L15.91 19.2L3 15z"
        transform="matrix(0.7582,0,0,0.7582,-0.4984,15.3441)"
  />
  <linearGradient id="gradient0" gradientUnits="userSpaceOnUse" x1="102.6" y1="8.5" x2="102.74" y2="47.07">
   <stop offset="0" stop-color="#face79"/>
   <stop offset="1" stop-color="#bc4105"/>
  </linearGradient>
  <path style="fill:url(#gradient0)"
        d="M26 8L14 41L42 58L60 12L48 10L44 12L26 8z"
        transform="matrix(0.7582,0,0,0.7582,-0.4984,15.3441)"
  />
  <linearGradient id="gradient1" gradientUnits="userSpaceOnUse" x1="103.24" y1="12.68" x2="103.39" y2="55.34">
   <stop offset="0" stop-color="#ffffff"/>
   <stop offset="1" stop-color="#8e8e8e"/>
  </linearGradient>
  <path style="fill:url(#gradient1)"
        d="M16 11V41L42 57L49 22L16 11z"
        transform="matrix(0.7582,0,0,0.7582,-0.4984,15.3441)"
  />
  <linearGradient id="gradient2" gradientUnits="userSpaceOnUse" x1="78.34" y1="-26.66" x2="101.46" y2="12.94">
   <stop offset="0" stop-color="#9a9a9a"/>
   <stop offset="1" stop-color="#505050"/>
  </linearGradient>
  <path style="fill:url(#gradient2)"
        d="M16 11L49 22L42 57L52 20.37L16 11z"
        transform="matrix(0.7582,0,0,0.7582,-0.4984,15.3441)"
  />
  <linearGradient id="gradient3" gradientUnits="userSpaceOnUse" x1="88.52" y1="9.59" x2="97.54" y2="51.29">
   <stop offset="0" stop-color="#ffe2ac"/>
   <stop offset="1" stop-color="#f49806"/>
  </linearGradient>
  <path style="fill:url(#gradient3)"
        d="M3 15L13 41L42 59L38 30L3 15z"
        transform="matrix(0.7582,0,0,0.7582,-0.4984,15.3441)"
  />
  <path style="fill:#a03d03"
        d="M3 15L38 30L42 59L40.5 28L3 15z"
        transform="matrix(0.7582,0,0,0.7582,-0.4984,15.3441)"
  />
  <path style="fill:#010101; fill-opacity:0.549"
        d="M30 62C30 62 38 59 39 58C40 57 40 56 39 55C38 54 30 52 30 52V62z"
        transform="matrix(0.9204,-0.1473,0.1473,0.9204,9.0951,-14.4603)"
  />
  <radialGradient id="gradient4" gradientUnits="userSpaceOnUse" cx="0" cy="0" r="64" gradientTransform="matrix(0.5551,0.0905,-0.0804,0.4934,4.8105,28.3109)">
   <stop offset="0" stop-color="#fbf5aa"/>
   <stop offset="1" stop-color="#ffc000"/>
  </radialGradient>
  <path style="fill:url(#gradient4)"
        d="M1 21V47L29 61V35L1 21z"
        transform="matrix(0.9204,-0.1473,0.1473,0.9204,10.0155,-14.6077)"
  />
  <path style="fill:none; stroke:#000000; stroke-width:2; stroke-linecap:round; stroke-linejoin:round"
        d="M1 21V47L29 61V35L1 21z"
        transform="matrix(0.9204,-0.1473,0.1473,0.9204,10.0155,-14.6077)"
  />
  <linearGradient id="gradient5" gradientUnits="userSpaceOnUse" x1="94.52" y1="49.68" x2="52.09" y2="84.27">
   <stop offset="0.2091" stop-color="#010101"/>
   <stop offset="1" stop-color="#010101" stop-opacity="0.1843"/>
  </linearGradient>
  <path style="fill:url(#gradient5)"
        d="M31 33L50 17L51 19L32 35L31 33z"
        transform="matrix(1.1003,-0.2298,0.2505,0.899,3.0455,12.6054)"
  />
  <linearGradient id="gradient6" gradientUnits="userSpaceOnUse" x1="94.52" y1="49.68" x2="52.09" y2="84.27">
   <stop offset="0.2091" stop-color="#010101"/>
   <stop offset="1" stop-color="#010101" stop-opacity="0.1843"/>
  </linearGradient>
  <path style="fill:url(#gradient6)"
        d="M31 33L50 17L51 19L32 35L31 33z"
        transform="matrix(1.0331,-0.1654,0.1654,1.0331,-22.9872,-24.5277)"
  />
  <linearGradient id="gradient7" gradientUnits="userSpaceOnUse" x1="94.52" y1="49.68" x2="52.09" y2="84.27">
   <stop offset="0.2091" stop-color="#010101"/>
   <stop offset="1" stop-color="#010101" stop-opacity="0.1843"/>
  </linearGradient>
  <path style="fill:url(#gradient7)"
        d="M31 33L50 17L51 19L32 35L31 33z"
        transform="matrix(1.0331,-0.1627,0.1654,1.0162,3.9291,-15.4691)"
  />
 </g>
</svg>
